lib/healthicons/icons/outline/symbols/outbreak.svg

<svg fill="none" height="48" viewBox="0 0 48 48" width="48" xmlns="http://www.w3.org/2000/svg"><g clip-rule="evenodd" fill="#333" fill-rule="evenodd"><path d="m22.0826 5.18344c1.0208-.26736 1.9175.53676 1.9175 1.4973 0 .70357-.4607 1.27342-1.0555 1.49026-2.3028.83965-3.9445 3.0489-3.9445 5.639 0 3.3137 2.6863 6 6 6s6-2.6863 6-6c0-2.5901-1.6417-4.79935-3.9446-5.639-.5947-.21684-1.0554-.7867-1.0554-1.49026 0-.96054.8967-1.76466 1.9175-1.4973 4.6272 1.212 8.0825 5.25936 8.0825 10.12656 0 1.4155-.2939 2.7658-.8254 3.9975.8681.1485 1.7281.413 2.5603.8011 4.4111 2.0569 6.619 6.8989 5.7619 11.6049-.1891 1.0381-1.2969 1.5109-2.1674 1.105-.6376-.2973-.9594-.9557-.9046-1.5864.2123-2.4419-1.0961-4.8634-3.4436-5.9581-3.0032-1.4004-6.5731-.1011-7.9735 2.9022-1.4005 3.0032-.1011 6.5731 2.9021 7.9735 2.3474 1.0947 5.0435.5404 6.7777-1.1918.4478-.4474 1.159-.6241 1.7967-.3268.8705.406 1.2203 1.5585.5466 2.3706-3.054 3.6816-8.1824 5.1026-12.5935 3.0456-1.3624-.6353-2.518-1.5398-3.4373-2.6254-.9194 1.0856-2.0749 1.9901-3.4373 2.6254-4.4112 2.057-9.5396.636-12.5936-3.0456-.67371-.8121-.32389-1.9646.54665-2.3706.63765-.2973 1.34885-.1206 1.79665.3268 1.7342 1.7322 4.4303 2.2865 6.7777 1.1918 3.0033-1.4004 4.3026-4.9703 2.9022-7.9735-1.4005-3.0033-4.9704-4.3026-7.9736-2.9022-2.3474 1.0947-3.65585 3.5162-3.4436 5.9581.05481.6307-.26694 1.2891-.90459 1.5864-.87053.406-1.97829-.0669-2.16737-1.105-.85712-4.706 1.3508-9.548 5.76196-11.6049.8321-.3881 1.6922-.6526 2.5603-.8012-.5315-1.2316-.8254-2.5819-.8254-3.9974 0-4.8672 3.4552-8.91456 8.0825-10.12656zm-4.1335 4.84396c-1.2237 1.4563-1.949 3.2959-1.949 5.2826 0 1.5776.4543 3.0545 1.2493 4.3227.1918.3061.2037.6918.0311 1.0091-.1727.3173-.5031.5168-.8643.5219-1.1167.0158-2.2386.2599-3.3058.7575-1.8005.8396-3.16124 2.2744-3.96394 3.9989.76469-1.0246 1.78674-1.8803 3.02714-2.4587 3.0396-1.4174 6.5145-.7606 8.8292 1.3896.0515-1.4069.8296-2.6283 1.9702-3.3001-3.4367-.8975-5.9729-4.023-5.9729-7.7409 0-1.3686.3436-2.6565.949-3.7826zm9.078 11.5235c1.1406.6718 1.9187 1.8932 1.9702 3.3001 2.3147-2.1502 5.7896-2.807 8.8293-1.3896 1.2403.5784 2.2624 1.4341 3.0271 2.4587-.8027-1.7245-2.1635-3.1593-3.964-3.9989-1.0671-.4976-2.1891-.7417-3.3057-.7575-.3612-.0051-.6916-.2046-.8643-.5219-.1726-.3173-.1608-.703.0311-1.0091.795-1.2682 1.2493-2.7451 1.2493-4.3227 0-1.9867-.7254-3.8263-1.949-5.2826.6054 1.1261.949 2.414.949 3.7826 0 3.7179-2.5363 6.8435-5.973 7.7409zm-.3017 7.0589c-.5224.2501-1.1075.3902-1.7254.3902-.6178 0-1.2029-.1401-1.7253-.3902 1.0097 3.6908-.7543 7.6809-4.3392 9.3525-1.2404.5784-2.5529.8113-3.8293.7385 1.837.4936 3.8108.3735 5.6113-.4661 1.4579-.6798 2.6214-1.7435 3.4374-3.0336.1833-.2897.5023-.4654.8452-.4654.3428 0 .6618.1757.8451.4654.816 1.2901 1.9795 2.3538 3.4374 3.0336 1.8005.8396 3.7743.9597 5.6113.4661-1.2764.0728-2.5889-.1601-3.8292-.7385-3.585-1.6716-5.349-5.6617-4.3393-9.3525zm-1.7254-5.6098c-1.1045 0-2 .8954-2 2s.8955 2 2 2c1.1046 0 2-.8954 2-2s-.8954-2-2-2z"/><path d="m20.4756 31.5989c-.1043.5759-.3089 1.1302-.6038 1.636-.0504.0863-.1034.1713-.159.2547-.17-.1062-.3367-.2173-.4998-.3332-.3839-.2729-.7477-.5723-1.0888-.8954-1.2906-1.2225-2.2555-2.7854-2.7509-4.545-.1208-.4291-.2137-.8699-.2766-1.3203-.0303-.2169-.0537-.4361-.0698-.6573.1086-.0115.2172-.0194.3256-.0237.5806-.0233 1.1565.0557 1.7023.2275-.0001 0 0 .0001 0 0 .2753 2.3464 1.5661 4.3825 3.4208 5.6567zm14.172-5.8842c-.5805-.0233-1.1565.0557-1.7023.2275-.0001.0001.0001 0 0 0-.2753 2.3464-1.5661 4.3823-3.4208 5.6564 0 .0001-.0001-.0001 0 0 .1043.576.3089 1.1306.6039 1.6363.0503.0864.1033.1713.1589.2546.17-.1061.3367-.2172.4997-.3331.384-.2729.7478-.5722 1.0889-.8954 1.2906-1.2225 2.2555-2.7854 2.7509-4.545.1208-.4291.2137-.87.2766-1.3205.0303-.2169.0537-.436.0698-.6571-.1086-.0115-.2172-.0194-.3256-.0237zm-12.2308-10.3778c-.6581.1754-1.2896.4164-1.8869.7154.3122.6213.7502 1.1685 1.2805 1.6083.0002.0001-.0001-.0001 0 0 .9307-.405 1.9538-.6378 3.0284-.659.0536-.0011.1074-.0016.1612-.0016.0504 0 .1006.0005.1507.0014 1.0785.0199 2.1049.2533 3.0386.6596.0001-.0001-.0002.0001 0 0 .5303-.4398.9687-.9874 1.281-1.6087-.5973-.299-1.2288-.5399-1.887-.7154-.824-.2198-1.69-.3369-2.5833-.3369-.8932 0-1.7591.1171-2.5832.3369z"/></g></svg>

<svg width="48" height="48" viewBox="0 0 48 48" fill="none" xmlns="http://www.w3.org/2000/svg">
<path fill-rule="evenodd" clip-rule="evenodd" d="M22.0826 5.18344C23.1034 4.91608 24.0001 5.7202 24.0001 6.68074C24.0001 7.38431 23.5394 7.95416 22.9446 8.171C20.6418 9.01065 19.0001 11.2199 19.0001 13.81C19.0001 17.1237 21.6864 19.81 25.0001 19.81C28.3138 19.81 31.0001 17.1237 31.0001 13.81C31.0001 11.2199 29.3584 9.01065 27.0555 8.171C26.4608 7.95416 26.0001 7.3843 26.0001 6.68074C26.0001 5.7202 26.8968 4.91608 27.9176 5.18344C32.5448 6.39544 36.0001 10.4428 36.0001 15.31C36.0001 16.7255 35.7062 18.0758 35.1747 19.3075C36.0428 19.456 36.9028 19.7205 37.735 20.1086C42.1461 22.1655 44.354 27.0075 43.4969 31.7135C43.3078 32.7516 42.2 33.2244 41.3295 32.8185C40.6919 32.5212 40.3701 31.8628 40.4249 31.2321C40.6372 28.7902 39.3288 26.3687 36.9813 25.274C33.9781 23.8736 30.4082 25.1729 29.0078 28.1762C27.6073 31.1794 28.9067 34.7493 31.9099 36.1497C34.2573 37.2444 36.9534 36.6901 38.6876 34.9579C39.1354 34.5105 39.8466 34.3338 40.4843 34.6311C41.3548 35.0371 41.7046 36.1896 41.0309 37.0017C37.9769 40.6833 32.8485 42.1043 28.4374 40.0473C27.075 39.412 25.9194 38.5075 25.0001 37.4219C24.0807 38.5075 22.9252 39.412 21.5628 40.0473C17.1516 42.1043 12.0232 40.6833 8.9692 37.0017C8.29549 36.1896 8.64531 35.0371 9.51585 34.6311C10.1535 34.3338 10.8647 34.5105 11.3125 34.9579C13.0467 36.6901 15.7428 37.2444 18.0902 36.1497C21.0935 34.7493 22.3928 31.1794 20.9924 28.1762C19.5919 25.1729 16.022 23.8736 13.0188 25.274C10.6714 26.3687 9.36295 28.7902 9.5752 31.2321C9.63001 31.8628 9.30826 32.5212 8.67061 32.8185C7.80008 33.2245 6.69232 32.7516 6.50324 31.7135C5.64612 27.0075 7.85404 22.1655 12.2652 20.1086C13.0973 19.7205 13.9574 19.456 14.8255 19.3074C14.294 18.0758 14.0001 16.7255 14.0001 15.31C14.0001 10.4428 17.4553 6.39544 22.0826 5.18344ZM17.9491 10.0274C16.7254 11.4837 16.0001 13.3233 16.0001 15.31C16.0001 16.8876 16.4544 18.3645 17.2494 19.6327C17.4412 19.9388 17.4531 20.3245 17.2805 20.6418C17.1078 20.9591 16.7774 21.1586 16.4162 21.1637C15.2995 21.1795 14.1776 21.4236 13.1104 21.9212C11.3099 22.7608 9.94916 24.1956 9.14646 25.9201C9.91115 24.8955 10.9332 24.0398 12.1736 23.4614C15.2132 22.044 18.6881 22.7008 21.0028 24.851C21.0543 23.4441 21.8324 22.2227 22.973 21.5509C19.5363 20.6534 17.0001 17.5279 17.0001 13.81C17.0001 12.4414 17.3437 11.1535 17.9491 10.0274ZM27.0271 21.5509C28.1677 22.2227 28.9458 23.4441 28.9973 24.851C31.312 22.7008 34.7869 22.044 37.8266 23.4614C39.0669 24.0398 40.089 24.8955 40.8537 25.9201C40.051 24.1956 38.6902 22.7608 36.8897 21.9212C35.8226 21.4236 34.7006 21.1795 33.584 21.1637C33.2228 21.1586 32.8924 20.9591 32.7197 20.6418C32.5471 20.3245 32.5589 19.9388 32.7508 19.6327C33.5458 18.3645 34.0001 16.8876 34.0001 15.31C34.0001 13.3233 33.2747 11.4837 32.0511 10.0274C32.6565 11.1535 33.0001 12.4414 33.0001 13.81C33.0001 17.5279 30.4638 20.6535 27.0271 21.5509ZM26.7254 28.6098C26.203 28.8599 25.6179 29 25 29C24.3822 29 23.7971 28.8599 23.2747 28.6098C24.2844 32.3006 22.5204 36.2907 18.9355 37.9623C17.6951 38.5407 16.3826 38.7736 15.1062 38.7008C16.9432 39.1944 18.917 39.0743 20.7175 38.2347C22.1754 37.5549 23.3389 36.4912 24.1549 35.2011C24.3382 34.9114 24.6572 34.7357 25.0001 34.7357C25.3429 34.7357 25.6619 34.9114 25.8452 35.2011C26.6612 36.4912 27.8247 37.5549 29.2826 38.2347C31.0831 39.0743 33.0569 39.1944 34.8939 38.7008C33.6175 38.7736 32.305 38.5407 31.0647 37.9623C27.4797 36.2907 25.7157 32.3006 26.7254 28.6098ZM25 23C23.8955 23 23 23.8954 23 25C23 26.1046 23.8955 27 25 27C26.1046 27 27 26.1046 27 25C27 23.8954 26.1046 23 25 23Z" fill="#333333"/>
<path fill-rule="evenodd" clip-rule="evenodd" d="M20.4756 31.5989C20.3713 32.1748 20.1667 32.7291 19.8718 33.2349C19.8214 33.3212 19.7684 33.4062 19.7128 33.4896C19.5428 33.3834 19.3761 33.2723 19.213 33.1564C18.8291 32.8835 18.4653 32.5841 18.1242 32.261C16.8336 31.0385 15.8687 29.4756 15.3733 27.716C15.2525 27.2869 15.1596 26.8461 15.0967 26.3957C15.0664 26.1788 15.043 25.9596 15.0269 25.7384C15.1355 25.7269 15.2441 25.719 15.3525 25.7147C15.9331 25.6914 16.509 25.7704 17.0548 25.9422C17.0547 25.9422 17.0548 25.9423 17.0548 25.9422C17.3301 28.2886 18.6209 30.3247 20.4756 31.5989C20.4756 31.5988 20.4756 31.5989 20.4756 31.5989ZM34.6476 25.7147C34.0671 25.6914 33.4911 25.7704 32.9453 25.9422C32.9452 25.9423 32.9454 25.9422 32.9453 25.9422C32.67 28.2886 31.3792 30.3245 29.5245 31.5986C29.5244 31.5985 29.5245 31.5987 29.5245 31.5986C29.6288 32.1746 29.8334 32.7292 30.1284 33.2349C30.1787 33.3213 30.2317 33.4062 30.2873 33.4895C30.4573 33.3834 30.624 33.2723 30.787 33.1564C31.171 32.8835 31.5348 32.5842 31.8759 32.261C33.1665 31.0385 34.1314 29.4756 34.6268 27.716C34.7476 27.2869 34.8405 26.846 34.9034 26.3955C34.9337 26.1786 34.9571 25.9595 34.9732 25.7384C34.8646 25.7269 34.756 25.719 34.6476 25.7147ZM22.4168 15.3369C21.7587 15.5123 21.1272 15.7533 20.5299 16.0523C20.8421 16.6736 21.2801 17.2208 21.8104 17.6606C21.8103 17.6605 21.8106 17.6607 21.8104 17.6606C22.7411 17.2556 23.7642 17.0228 24.8388 17.0016C24.8924 17.0005 24.9462 17 25 17C25.0504 17 25.1006 17.0005 25.1507 17.0014C26.2292 17.0213 27.2556 17.2547 28.1893 17.661C28.1891 17.6611 28.1894 17.6609 28.1893 17.661C28.7196 17.2212 29.158 16.6736 29.4703 16.0523C28.873 15.7533 28.2415 15.5124 27.5833 15.3369C26.7593 15.1171 25.8933 15 25 15C24.1068 15 23.2409 15.1171 22.4168 15.3369Z" fill="#333333"/>
</svg>
